svgs/light/mandolin.svg

<svg xmlns="http://www.w3.org/2000/svg" viewBox="0 0 512 512"><!--! Font Awesome Pro 6.3.0 by @fontawesome - https://fontawesome.com License - https://fontawesome.com/license (Commercial License) Copyright 2023 Fonticons, Inc. --><path d="M507.3 50.66l-46-46c-5.267-5.268-13.44-6.198-19.76-2.252l-69.45 43.4c-3.482 2.174-5.993 5.604-7.018 9.579l-23.9 92.74l-43.81 43.83h-31.25c-177.3 0-220.3 49.28-235.3 64.28c-46.87 46.88-39.49 150.4 17.5 207.5C80.25 495.6 126.8 512 169.7 512c33.74 0 65.38-10.15 86-30.77c15.5-15.63 67.96-63.24 64.21-257.3V214.6l43.83-43.84l92.66-23.89c3.958-1.022 7.378-3.52 9.553-6.983l43.51-69.35C513.5 64.2 512.6 55.94 507.3 50.66zM287.7 258.2c-1.1 147.9-39.87 185.9-52.99 198.8l-1.625 1.625c-13.62 13.63-36.74 21.38-63.36 21.38c-36.99 0-74.86-14.88-98.86-38.88C23.38 393.5 21.51 310.7 53.38 278.8l1.625-1.625C67.62 264.5 105.7 226.2 253.8 224.2l11.34-.084l-4.521 4.522c-6.249 6.251-6.249 16.38 0 22.63c3.124 3.125 7.217 4.688 11.31 4.688s8.186-1.563 11.31-4.688l4.507-4.508L287.7 258.2zM442.3 117.5l-62.44 16.1c-.2461-.2813-.3359-.6407-.6034-.9083c-.2715-.2715-.6347-.3633-.9198-.6114l16.09-62.46l53.24-33.25l27.99 28L442.3 117.5zM191.1 255.1c-35.29 0-63.99 28.71-63.99 64.01s28.7 64.01 63.99 64.01s63.99-28.71 63.99-64.01S227.3 255.1 191.1 255.1zM191.1 351.1c-17.64 0-31.99-14.36-31.99-32S174.3 287.1 191.1 287.1s31.99 14.36 31.99 32S209.6 351.1 191.1 351.1z"/></svg>

<svg xmlns="http://www.w3.org/2000/svg" viewBox="0 0 512 512"><!-- Font Awesome Pro 6.0.0-alpha2 by @fontawesome - https://fontawesome.com License - https://fontawesome.com/license (Commercial License) --><path d="M507.314 50.711L461.305 4.688C456.039 -0.58 447.837 -1.516 441.522 2.43L372.068 45.808C368.586 47.982 366.075 51.412 365.05 55.388L341.154 148.132L297.34 191.96H266.086C88.744 191.96 45.752 241.216 30.755 256.218C-16.111 303.099 -8.738 406.612 48.252 463.744C80.246 495.623 126.737 512 169.729 512C203.473 512 235.092 501.874 255.713 481.246C271.21 465.619 323.71 417.988 319.96 223.964V214.587L363.79 170.744L456.454 146.852C460.413 145.831 463.832 143.332 466.007 139.869L509.548 70.538C513.518 64.217 512.592 55.989 507.314 50.711ZM287.707 258.218C285.707 406.112 247.839 444.116 234.717 456.993L233.092 458.618C219.47 472.245 196.349 479.996 169.729 479.996C132.736 479.996 94.868 465.119 70.872 441.116C23.381 393.485 21.507 310.725 53.376 278.845L55 277.22C67.623 264.469 105.741 226.214 253.838 224.214L265.18 224.13L260.659 228.652C254.41 234.902 254.41 245.029 260.659 251.28C263.783 254.405 267.876 255.968 271.969 255.968S280.155 254.405 283.28 251.28L287.787 246.771L287.707 258.218ZM442.303 117.45L379.865 133.548C379.619 133.267 379.529 132.907 379.262 132.639C378.99 132.368 378.627 132.276 378.342 132.028L394.437 69.569L447.677 36.315L475.672 64.318L442.303 117.45ZM191.984 255.968C156.694 255.968 127.996 284.674 127.996 319.976S156.694 383.984 191.984 383.984S255.972 355.277 255.972 319.976S227.275 255.968 191.984 255.968ZM191.984 351.98C174.347 351.98 159.99 337.619 159.99 319.976S174.347 287.972 191.984 287.972S223.978 302.333 223.978 319.976S209.622 351.98 191.984 351.98Z"/></svg>
